src/assets/icons/IconMastodon.svg

<?xml version="1.0" standalone="no"?>
<svg xmlns:xlink="http://www.w3.org/1999/xlink" width="128" height="128" viewBox="0 0 24 24" xmlns="http://www.w3.org/2000/svg">
    <g>
        <path fill="none" d="M0 0h24v24H0z"/>
        <path fill-rule="nonzero" d="M21.258 13.99c-.274 1.41-2.456 2.955-4.962 3.254-1.306.156-2.593.3-3.965.236-2.243-.103-4.014-.535-4.014-.535 0 .218.014.426.04.62.292 2.215 2.196 2.347 4 2.41 1.82.062 3.44-.45 3.44-.45l.076 1.646s-1.274.684-3.542.81c-1.25.068-2.803-.032-4.612-.51-3.923-1.039-4.598-5.22-4.701-9.464-.031-1.26-.012-2.447-.012-3.44 0-4.34 2.843-5.611 2.843-5.611 1.433-.658 3.892-.935 6.45-.956h.062c2.557.02 5.018.298 6.451.956 0 0 2.843 1.272 2.843 5.61 0 0 .036 3.201-.397 5.424zm-2.956-5.087c0-1.074-.273-1.927-.822-2.558-.567-.631-1.308-.955-2.229-.955-1.065 0-1.871.41-2.405 1.228l-.518.87-.519-.87C11.276 5.8 10.47 5.39 9.405 5.39c-.921 0-1.663.324-2.229.955-.549.631-.822 1.484-.822 2.558v5.253h2.081V9.057c0-1.075.452-1.62 1.357-1.62 1 0 1.501.647 1.501 1.927v2.79h2.07v-2.79c0-1.28.5-1.927 1.5-1.927.905 0 1.358.545 1.358 1.62v5.1h2.08V8.902z"/>
    </g>
</svg>

<?xml version="1.0" encoding="UTF-8" standalone="no"?>
<svg
   width="128"
   height="128"
   viewBox="0 0 24 24"
   version="1.1"
   id="svg1"
   sodipodi:docname="IconMastodon.svg"
   inkscape:version="1.4.2 (f4327f4, 2025-05-13)"
   xmlns:inkscape="http://www.inkscape.org/namespaces/inkscape"
   xmlns:sodipodi="http://sodipodi.sourceforge.net/DTD/sodipodi-0.dtd"
   xmlns="http://www.w3.org/2000/svg"
   xmlns:svg="http://www.w3.org/2000/svg">
  <defs
     id="defs1" />
  <sodipodi:namedview
     id="namedview1"
     pagecolor="#ffffff"
     bordercolor="#000000"
     borderopacity="0.25"
     inkscape:showpageshadow="2"
     inkscape:pageopacity="0.0"
     inkscape:pagecheckerboard="0"
     inkscape:deskcolor="#d1d1d1"
     inkscape:zoom="2.2290436"
     inkscape:cx="79.630563"
     inkscape:cy="96.678233"
     inkscape:window-width="1920"
     inkscape:window-height="1009"
     inkscape:window-x="1072"
     inkscape:window-y="-8"
     inkscape:window-maximized="1"
     inkscape:current-layer="svg1" />
  <g
     id="g1"
     transform="matrix(0.91671675,0,0,0.91671675,0.83868703,1.0751944)">
    <path
       fill-rule="nonzero"
       d="m 21.258,13.99 c -0.274,1.41 -2.456,2.955 -4.962,3.254 -1.306,0.156 -2.593,0.3 -3.965,0.236 -2.243,-0.103 -4.014,-0.535 -4.014,-0.535 0,0.218 0.014,0.426 0.04,0.62 0.292,2.215 2.196,2.347 4,2.41 1.82,0.062 3.44,-0.45 3.44,-0.45 l 0.076,1.646 c 0,0 -1.274,0.684 -3.542,0.81 -1.25,0.068 -2.803,-0.032 -4.612,-0.51 C 3.796,20.432 3.121,16.251 3.018,12.007 2.987,10.747 3.006,9.56 3.006,8.567 3.006,4.227 5.849,2.956 5.849,2.956 7.282,2.298 9.741,2.021 12.299,2 h 0.062 c 2.557,0.02 5.018,0.298 6.451,0.956 0,0 2.843,1.272 2.843,5.61 0,0 0.036,3.201 -0.397,5.424 z M 18.302,8.903 C 18.302,7.829 18.029,6.976 17.48,6.345 16.913,5.714 16.172,5.39 15.251,5.39 14.186,5.39 13.38,5.8 12.846,6.618 l -0.518,0.87 -0.519,-0.87 C 11.276,5.8 10.47,5.39 9.405,5.39 8.484,5.39 7.742,5.714 7.176,6.345 6.627,6.976 6.354,7.829 6.354,8.903 v 5.253 H 8.435 V 9.057 c 0,-1.075 0.452,-1.62 1.357,-1.62 1,0 1.501,0.647 1.501,1.927 v 2.79 h 2.07 v -2.79 c 0,-1.28 0.5,-1.927 1.5,-1.927 0.905,0 1.358,0.545 1.358,1.62 v 5.1 h 2.08 V 8.902 Z"
       id="path1" />
  </g>
</svg>
